svg/fluentui-system-icons/ic_fluent_video_person_clock_16_filled.svg

<svg width="16" height="16" viewBox="0 0 16 16" fill="none" xmlns="http://www.w3.org/2000/svg">
<path d="M9 5C9 6.10457 8.10457 7 7 7C5.89543 7 5 6.10457 5 5C5 3.89543 5.89543 3 7 3C8.10457 3 9 3.89543 9 5ZM1.75 1C0.783502 1 0 1.7835 0 2.75V9.25C0 10.2165 0.783502 11 1.75 11H6.02242C6.12465 9.86553 6.57137 8.8304 7.25716 8H5C4.44772 8 4 8.44772 4 9V10H1.75C1.33579 10 1 9.66421 1 9.25V2.75C1 2.33579 1.33579 2 1.75 2H12.25C12.6642 2 13 2.33579 13 2.75V6.20703C13.3486 6.30564 13.6832 6.43777 14 6.59971V2.75C14 1.7835 13.2165 1 12.25 1H1.75ZM16 11.5C16 13.9853 13.9853 16 11.5 16C9.01472 16 7 13.9853 7 11.5C7 9.01472 9.01472 7 11.5 7C13.9853 7 16 9.01472 16 11.5ZM11.5 9C11.2239 9 11 9.22386 11 9.5V11.5C11 11.7761 11.2239 12 11.5 12H13C13.2761 12 13.5 11.7761 13.5 11.5C13.5 11.2239 13.2761 11 13 11H12V9.5C12 9.22386 11.7761 9 11.5 9Z" fill="#212121"/>
</svg>

<svg xmlns="http://www.w3.org/2000/svg" width="16" height="16"><path d="M9 5a2 2 0 1 1-4 0 2 2 0 0 1 4 0ZM1.75 1A1.75 1.75 0 0 0 0 2.75v6.5C0 10.216.784 11 1.75 11h4.272a5.475 5.475 0 0 1 1.235-3H5a1 1 0 0 0-1 1v1H1.75A.75.75 0 0 1 1 9.25v-6.5A.75.75 0 0 1 1.75 2h10.5a.75.75 0 0 1 .75.75v3.457c.349.099.683.23 1 .393V2.75A1.75 1.75 0 0 0 12.25 1H1.75ZM16 11.5a4.5 4.5 0 1 1-9 0 4.5 4.5 0 0 1 9 0ZM11.5 9a.5.5 0 0 0-.5.5v2a.5.5 0 0 0 .5.5H13a.5.5 0 0 0 0-1h-1V9.5a.5.5 0 0 0-.5-.5Z"/></svg>
